X: 24
T: The Target
%R: jig
B: "Twenty Four Favourite Dances for the Year 1779", Thomas Straight, ed. p.12 #2
F: http://www.vwml.org/browse/browse-collections-dance-tune-books/browse-straights1779
Z: 2014 John Chambers <jc:trillian.mit.edu>
N: The 2nd strain has final repeat but no initial repeat; not fixed.
N: Removed dots from strains' final notes, to fix the rhythm.
M: 6/8
L: 1/8
K: D
A/G/ |\
FGA ABA | ABA AGF | GAB BAB | BAB BAG |\
FGA ABA | ABA AGF | GBA GFE | D3 D2 :|
c/d/ |\
ecA ecA | ecA def | fdB fdB | fdB Ace |\
ecA ecA | ecA B2c | dfe dcB | A3 A2 :|
%%begintext align
%% The 1st Gent: foot it to the 3rd Lady and turn
%% her retreat back to his Place .| The 1.t lady do the
%% same :| Lead down two Cu: up again and Cast
%% off :|. Right and left at top :|:
%%endtext
